; generated by PrusaSlicer 2.9.0 on 2025-03-05 at 15:17:01 UTC


; printer_model = MK4S
; filament_type = PLA
; filament_abrasive = 0
; nozzle_diameter = 0.4
; nozzle_high_flow = 1
; bed_temperature = 60
; brim_width = 0
; fill_density = 15%
; layer_height = 0.15
; temperature = 230
; ironing = 0
; support_material = 0
; extruder_colour = ""
; max_layer_z = 5.75
; objects_info = {"objects":[{"name":"HAMS_hub_cover.stl","polygon":[[211.018,58.643],[211.500,58.843],[211.914,59.161],[212.232,59.575],[212.432,60.057],[212.500,60.575],[212.500,149.425],[212.432,149.943],[212.232,150.425],[211.914,150.839],[211.500,151.157],[211.018,151.357],[210.500,151.425],[39.500,151.425],[38.982,151.357],[38.500,151.157],[38.086,150.839],[37.768,150.425],[37.568,149.943],[37.500,149.425],[37.500,60.575],[37.568,60.057],[37.768,59.575],[38.086,59.161],[38.500,58.843],[38.982,58.643],[39.500,58.575],[210.500,58.575]]}]}
; filament used [mm] = 13847.47
; filament used [g] = 41.30
; filament cost = 30.98
; filament used [cm3] = 33.31
; total filament used for wipe tower [g] = 0.00
; estimated printing time (normal mode) = 1h 37m 42s
; estimated printing time (silent mode) = 1h 39m 24s

;
;

;
;

;
;

;
;

;
;

M73 P0 R97
M73 Q0 S99
M201 X4000 Y4000 Z200 E2500
M203 X300 Y300 Z40 E100
M204 P4000 R1200 T4000
M205 X8.00 Y8.00 Z2.00 E10.00
M205 S0 T0
M486 S0
M486 AHAMS_hub_cover.stl
M486 S-1
;TYPE:Custom
M17
M862.1 P0.4 A0 F1
M862.3 P "MK4S"
M862.5 P2
M862.6 P"Input shaper"
M115 U6.1.3+7898
M555 X31.9429 Y49.0179 W186.114 H107.964
G90
M83
M140 S60
M104 T0 S170
M109 T0 R170
M84 E
G28
G1 X42 Y-4 Z5 F4800
M302 S160
G1 E-2 F2400
M84 E
G29 P9 X10 Y-4 W32 H4
M106 S100
G0 Z40 F10000
M190 S60
M107
; MBL
M84 E
G29 P1
G29 P1 X0 Y0 W50 H20 C
G29 P3.2
G29 P3.13
G29 A
; prepare for purge
M104 S230
G0 X0 Y-4 Z15 F4800
M109 S230
G92 E0
M569 S0 E
; Extrude purge line
G92 E0
G1 E2 F2400
G0 E7 X15 Z0.2 F500
G0 X25 E4 F500
G0 X35 E4 F650
G0 X45 E4 F800
G0 X48 Z0.05 F8000
G0 X51 Z0.2 F8000
G92 E0
M221 S100
G21
G90
M83
M572 S0.036
M142 S36
M107
;LAYER_CHANGE
;Z:0.2
;HEIGHT:0.2
G1 E-.7 F2100
G1 Z.8 F720
G1 X34.931 Y54.856 F18000
G1 Z.2 F720
G1 E.7 F1500
M204 P500
;TYPE:Skirt/Brim
;WIDTH:0.5
G1 F2400
G1 X36.566 Y53.868 E.0726
G1 X38.402 Y53.337 E.07264
G1 X39.5 Y53.246 E.04187
G1 X210.5 Y53.246 E6.49908
G1 X211.313 Y53.3 E.03097
G1 X213.434 Y53.868 E.08345
G1 X214.842 Y54.681 E.06179
G1 X216.219 Y56.005 E.0726
G1 X217.317 Y57.907 E.08347
G3 X217.829 Y60.575 I-8.943 J3.098 E.10361
G1 X217.829 Y149.425 E3.37686
G3 X217.317 Y152.093 I-9.454 J-.43 E.10361
G1 X216.394 Y153.767 E.07265
G1 X215.07 Y155.144 E.0726
G1 X213.434 Y156.132 E.07264
G1 X211.598 Y156.663 E.07264
G1 X210.5 Y156.754 E.04187
G1 X39.5 Y156.754 E6.49908
G3 X36.832 Y156.242 I.43 J-9.456 E.10361
G1 X35.158 Y155.319 E.07265
G1 X33.781 Y153.995 E.0726
G1 X32.793 Y152.359 E.07264
G1 X32.262 Y150.523 E.07264
G1 X32.171 Y149.425 E.04187
G1 X32.171 Y60.575 E3.37686
G3 X32.683 Y57.907 I9.456 J.43 E.10361
G1 X33.606 Y56.233 E.07265
G1 X34.889 Y54.899 E.07034
M204 P2500
G1 E-.7 F2100
M204 T4000
G1 X36.136 Y81.389 Z.663 F18000
G1 X36.321 Y85.312 Z.723
G1 X36.505 Y89.235 Z.766
G1 X36.874 Y97.081 Z.8
M486 S0
G1 X39.34 Y149.468
G1 Z.2 F720
G1 E.7 F1500
M204 P500
;TYPE:Perimeter
;WIDTH:0.499999
G1 F2400
G1 X39.307 Y149.366 E.00407
G1 X39.307 Y60.634 E3.37237
G1 X39.369 Y60.444 E.0076
M73 Q0 S98
G1 X39.559 Y60.382 E.0076
G1 X210.428 Y60.387 E6.49409
G3 X210.646 Y60.463 I.011 J.317 E.00898
G1 X210.693 Y60.652 E.0074
G1 X210.693 Y149.366 E3.37169
G1 X210.631 Y149.556 E.0076
G1 X210.441 Y149.618 E.0076
G1 X39.559 Y149.618 E6.49459
G1 X39.369 Y149.556 E.0076
G1 X39.359 Y149.525 E.00124
M204 P2500
G1 X39.359 Y149.525 F18000
G1 X38.899 Y149.586
M204 P500
;TYPE:External perimeter
G1 F2400
G1 X38.85 Y149.396 E.00746
G1 X38.85 Y60.604 E3.37465
G1 X38.94 Y60.252 E.01381
G1 X39.177 Y60.015 E.01274
G1 X39.529 Y59.925 E.01381
G1 X210.428 Y59.93 E6.49523
G1 X210.667 Y59.951 E.00912
M73 P0 R96
G1 X210.957 Y60.118 E.01272
G1 X211.092 Y60.33 E.00955
G1 X211.15 Y60.652 E.01243
G1 X211.15 Y149.395 E3.37279
G1 X211.06 Y149.748 E.01385
G1 X210.823 Y149.985 E.01274
G1 X210.471 Y150.075 E.01381
G1 X39.529 Y150.075 E6.49687
G1 X39.177 Y149.985 E.01381
G1 X38.94 Y149.748 E.01274
G1 X38.914 Y149.644 E.00407
M204 P2500
G1 X38.858 Y149.248 F18000
G1 E-.7 F2100
G1 X62.47 Y137.176 Z.663 F18000
G1 X65.967 Y135.389 Z.723
G1 X69.464 Y133.601 Z.766
G1 X76.458 Y130.025 Z.8
G1 X210.506 Y61.494
G1 Z.2 F720
G1 E.7 F1500
M204 P500
;TYPE:Solid infill
;WIDTH:0.500187
G1 F2400
G1 X209.787 Y60.776 E.03863
G1 X209.14 Y60.776 E.0246
G1 X210.3 Y61.935 E.06235
G1 X210.3 Y62.582 E.0246
G1 X208.494 Y60.776 E.09711
G1 X207.847 Y60.776 E.0246
G1 X210.3 Y63.229 E.1319
G1 X210.3 Y63.875 E.02456
G1 X207.2 Y60.776 E.16666
G1 X206.553 Y60.776 E.0246
G1 X210.3 Y64.522 E.20145
G1 X210.3 Y65.169 E.0246
G1 X205.907 Y60.776 E.23622
G1 X205.26 Y60.776 E.0246
G1 X210.3 Y65.815 E.27098
G1 X210.3 Y66.462 E.0246
G1 X204.613 Y60.776 E.30577
G1 X203.967 Y60.776 E.02456
G1 X210.3 Y67.109 E.34053
G1 X210.3 Y67.755 E.02456
G1 X203.32 Y60.775 E.37532
G1 X202.673 Y60.775 E.0246
G1 X210.3 Y68.402 E.41011
G1 X210.3 Y69.049 E.0246
G1 X202.027 Y60.775 E.44488
G1 X201.38 Y60.775 E.0246
G1 X210.3 Y69.695 E.47964
G1 X210.3 Y70.342 E.0246
G1 X200.733 Y60.775 E.51443
G1 X200.087 Y60.775 E.02456
G1 X210.3 Y70.989 E.54919
G1 X210.3 Y71.635 E.02456
G1 X199.44 Y60.775 E.58395
G1 X198.793 Y60.775 E.0246
G1 X210.3 Y72.282 E.61874
G1 X210.3 Y72.929 E.0246
G1 X198.146 Y60.775 E.65353
G1 X197.5 Y60.775 E.02456
G1 X210.3 Y73.575 E.68827
G1 X210.3 Y74.222 E.0246
G1 X196.853 Y60.775 E.72306
G1 X196.206 Y60.775 E.0246
G1 X210.3 Y74.869 E.75785
G1 X210.3 Y75.516 E.0246
G1 X195.56 Y60.775 E.79261
G1 X194.913 Y60.775 E.0246
M73 P1 R96
M73 Q1 S98
G1 X210.3 Y76.162 E.82738
G1 X210.3 Y76.809 E.0246
G1 X194.266 Y60.775 E.86217
G1 X193.62 Y60.775 E.02456
G1 X210.3 Y77.456 E.89693
G1 X210.3 Y78.102 E.02456
G1 X192.973 Y60.775 E.93169
G1 X192.326 Y60.775 E.0246
G1 X210.3 Y78.749 E.96648
G1 X210.3 Y79.396 E.0246
G1 X191.68 Y60.775 E1.00124
G1 X191.033 Y60.775 E.0246
G1 X210.3 Y80.042 E1.03601
G1 X210.3 Y80.689 E.0246
G1 X190.386 Y60.775 E1.0708
G1 X189.739 Y60.775 E.0246
G1 X210.3 Y81.336 E1.10559
G1 X210.3 Y81.982 E.02456
G1 X189.093 Y60.775 E1.14032
G1 X188.446 Y60.775 E.0246
G1 X210.3 Y82.629 E1.17511
G1 X210.3 Y83.276 E.0246
G1 X187.799 Y60.775 E1.2099
G1 X187.153 Y60.775 E.02456
G1 X210.3 Y83.922 E1.24464
G1 X210.3 Y84.569 E.0246
G1 X186.506 Y60.775 E1.27943
G1 X185.859 Y60.775 E.0246
G1 X210.3 Y85.216 E1.31422
G1 X210.3 Y85.862 E.02456
G1 X185.213 Y60.775 E1.34896
G1 X184.566 Y60.775 E.0246
G1 X210.3 Y86.509 E1.38375
G1 X210.3 Y87.156 E.0246
G1 X183.919 Y60.775 E1.41854
G1 X183.273 Y60.775 E.02456
G1 X210.3 Y87.802 E1.45327
G1 X210.3 Y88.449 E.0246
G1 X182.626 Y60.775 E1.48806
G1 X181.979 Y60.775 E.0246
G1 X210.3 Y89.096 E1.52285
G1 X210.3 Y89.742 E.02456
G1 X181.332 Y60.775 E1.55761
G1 X180.686 Y60.775 E.02456
G1 X210.3 Y90.389 E1.59238
G1 X210.3 Y91.036 E.0246
G1 X180.039 Y60.775 E1.62717
G1 X179.392 Y60.775 E.0246
G1 X210.3 Y91.682 E1.66193
G1 X210.3 Y92.329 E.0246
G1 X178.746 Y60.775 E1.69669
G1 X178.099 Y60.775 E.0246
G1 X210.3 Y92.976 E1.73148
G1 X210.3 Y93.622 E.02456
M73 Q1 S97
G1 X177.452 Y60.775 E1.76625
G1 X176.806 Y60.775 E.02456
G1 X210.3 Y94.269 E1.80101
G1 X210.3 Y94.916 E.0246
G1 X176.159 Y60.775 E1.8358
G1 X175.512 Y60.775 E.0246
G1 X210.3 Y95.562 E1.87056
G1 X210.3 Y96.209 E.0246
G1 X174.866 Y60.775 E1.90532
G1 X174.219 Y60.775 E.0246
G1 X210.3 Y96.856 E1.94011
G1 X210.3 Y97.502 E.02456
G1 X173.572 Y60.775 E1.97488
G1 X172.925 Y60.775 E.0246
G1 X210.3 Y98.149 E2.00967
G1 X210.3 Y98.796 E.0246
G1 X172.279 Y60.775 E2.04443
G1 X171.632 Y60.775 E.0246
G1 X210.3 Y99.442 E2.07919
G1 X210.3 Y100.089 E.0246
G1 X170.985 Y60.775 E2.11398
G1 X170.339 Y60.775 E.02456
G1 X210.3 Y100.736 E2.14875
G1 X210.3 Y101.382 E.02456
G1 X169.692 Y60.774 E2.18354
G1 X169.045 Y60.774 E.0246
G1 X210.3 Y102.029 E2.21833
G1 X210.3 Y102.676 E.0246
M73 P1 R95
G1 X168.399 Y60.774 E2.25309
G1 X167.752 Y60.774 E.0246
G1 X210.3 Y103.322 E2.28785
G1 X210.3 Y103.969 E.0246
G1 X167.105 Y60.774 E2.32264
G1 X166.459 Y60.774 E.02456
G1 X210.3 Y104.616 E2.35741
G1 X210.3 Y105.262 E.02456
G1 X165.812 Y60.774 E2.39217
G1 X165.165 Y60.774 E.0246
G1 X210.3 Y105.909 E2.42696
G1 X210.3 Y106.556 E.0246
G1 X164.518 Y60.774 E2.46175
G1 X163.872 Y60.774 E.02456
G1 X210.3 Y107.202 E2.49648
G1 X210.3 Y107.849 E.0246
G1 X163.225 Y60.774 E2.53127
G1 X162.578 Y60.774 E.0246
M73 P2 R95
M73 Q2 S97
G1 X210.3 Y108.496 E2.56606
G1 X210.3 Y109.142 E.02456
G1 X161.932 Y60.774 E2.6008
G1 X161.285 Y60.774 E.0246
G1 X210.3 Y109.789 E2.63559
G1 X210.3 Y110.436 E.0246
G1 X160.638 Y60.774 E2.67038
G1 X159.992 Y60.774 E.02456
G1 X210.3 Y111.082 E2.70512
G1 X210.3 Y111.729 E.0246
G1 X159.345 Y60.774 E2.73991
G1 X158.698 Y60.774 E.0246
G1 X210.3 Y112.376 E2.7747
G1 X210.3 Y113.023 E.0246
G1 X158.052 Y60.774 E2.80946
G1 X157.405 Y60.774 E.0246
G1 X210.3 Y113.669 E2.84422
G1 X210.3 Y114.316 E.0246
G1 X156.758 Y60.774 E2.87901
G1 X156.111 Y60.774 E.0246
G1 X210.3 Y114.963 E2.9138
G1 X210.3 Y115.609 E.02456
G1 X155.465 Y60.774 E2.94854
G1 X154.818 Y60.774 E.0246
G1 X210.3 Y116.256 E2.98333
G1 X210.3 Y116.903 E.0246
G1 X154.171 Y60.774 E3.01812
G1 X153.525 Y60.774 E.02456
M73 Q2 S96
G1 X210.3 Y117.549 E3.05285
G1 X210.3 Y118.196 E.0246
G1 X152.878 Y60.774 E3.08764
G1 X152.231 Y60.774 E.0246
G1 X210.3 Y118.843 E3.12243
G1 X210.3 Y119.489 E.02456
G1 X151.585 Y60.774 E3.15717
G1 X150.938 Y60.774 E.0246
G1 X210.3 Y120.136 E3.19196
G1 X210.3 Y120.783 E.0246
G1 X150.291 Y60.774 E3.22675
G1 X149.645 Y60.774 E.02456
G1 X210.3 Y121.429 E3.26149
G1 X210.3 Y122.076 E.0246
G1 X148.998 Y60.774 E3.29628
G1 X148.351 Y60.774 E.0246
M73 P2 R94
G1 X210.3 Y122.723 E3.33107
G1 X210.3 Y123.369 E.02456
G1 X147.704 Y60.774 E3.36583
G1 X147.058 Y60.774 E.02456
G1 X210.3 Y124.016 E3.40059
G1 X210.3 Y124.663 E.0246
G1 X146.411 Y60.774 E3.43538
G1 X145.764 Y60.774 E.0246
G1 X210.3 Y125.309 E3.47014
G1 X210.3 Y125.956 E.0246
G1 X145.118 Y60.774 E3.50491
G1 X144.471 Y60.774 E.0246
M73 P3 R94
G1 X210.3 Y126.603 E3.5397
G1 X210.3 Y127.249 E.02456
M73 Q3 S96
G1 X143.824 Y60.774 E3.57446
G1 X143.178 Y60.774 E.02456
G1 X210.3 Y127.896 E3.60922
G1 X210.3 Y128.543 E.0246
G1 X142.531 Y60.774 E3.64401
G1 X141.884 Y60.774 E.0246
G1 X210.3 Y129.189 E3.67878
G1 X210.3 Y129.836 E.0246
G1 X141.238 Y60.774 E3.71354
G1 X140.591 Y60.774 E.0246
G1 X210.3 Y130.483 E3.74833
G1 X210.3 Y131.129 E.02456
G1 X139.944 Y60.774 E3.78309
G1 X139.297 Y60.774 E.0246
G1 X210.3 Y131.776 E3.81788
G1 X210.3 Y132.423 E.0246
G1 X138.651 Y60.774 E3.85264
G1 X138.004 Y60.774 E.0246
G1 X210.3 Y133.069 E3.88741
G1 X210.3 Y133.716 E.0246
M73 Q3 S95
G1 X137.357 Y60.774 E3.9222
G1 X136.711 Y60.773 E.02456
G1 X210.3 Y134.363 E3.95699
G1 X210.3 Y135.009 E.02456
G1 X136.064 Y60.773 E3.99175
G1 X135.417 Y60.773 E.0246
G1 X210.3 Y135.656 E4.02654
G1 X210.3 Y136.303 E.0246
G1 X134.771 Y60.773 E4.0613
G1 X134.124 Y60.773 E.0246
G1 X210.3 Y136.949 E4.09607
G1 X210.3 Y137.596 E.0246
G1 X133.477 Y60.773 E4.13086
G1 X132.831 Y60.773 E.02456
M73 P3 R93
G1 X210.3 Y138.243 E4.16562
G1 X210.3 Y138.889 E.02456
G1 X132.184 Y60.773 E4.20038
G1 X131.537 Y60.773 E.0246
G1 X210.3 Y139.536 E4.23517
G1 X210.3 Y140.183 E.0246
G1 X130.89 Y60.773 E4.26996
G1 X130.244 Y60.773 E.02456
M73 P4 R93
G1 X210.3 Y140.829 E4.3047
G1 X210.3 Y141.476 E.0246
M73 Q4 S95
G1 X129.597 Y60.773 E4.33949
G1 X128.95 Y60.773 E.0246
G1 X210.3 Y142.123 E4.37428
G1 X210.3 Y142.769 E.02456
G1 X128.304 Y60.773 E4.40901
G1 X127.657 Y60.773 E.0246
G1 X210.3 Y143.416 E4.4438
G1 X210.3 Y144.063 E.0246
G1 X127.01 Y60.773 E4.47859
G1 X126.364 Y60.773 E.02456
G1 X210.3 Y144.709 E4.51333
G1 X210.3 Y145.356 E.0246
G1 X125.717 Y60.773 E4.54812
G1 X125.07 Y60.773 E.0246
G1 X210.3 Y146.003 E4.58291
G1 X210.3 Y146.649 E.02456
G1 X124.424 Y60.773 E4.61765
G1 X123.777 Y60.773 E.0246
M73 Q4 S94
G1 X210.3 Y147.296 E4.65244
G1 X210.3 Y147.943 E.0246
G1 X123.13 Y60.773 E4.68723
G1 X122.483 Y60.773 E.0246
G1 X210.3 Y148.59 E4.72202
G1 X210.3 Y149.225 E.02414
G1 X210.289 Y149.225 E.00042
G1 X121.837 Y60.773 E4.75616
G1 X121.19 Y60.773 E.0246
G1 X209.642 Y149.225 E4.75616
G1 X208.995 Y149.225 E.0246
G1 X120.543 Y60.773 E4.75616
G1 X119.897 Y60.773 E.02456
M73 P4 R92
G1 X208.349 Y149.225 E4.75616
G1 X207.702 Y149.225 E.0246
G1 X119.25 Y60.773 E4.75616
G1 X118.603 Y60.773 E.0246
G1 X207.055 Y149.225 E4.75616
G1 X206.409 Y149.225 E.02456
M73 P5 R92
G1 X117.957 Y60.773 E4.75616
G1 X117.31 Y60.773 E.0246
M73 Q5 S94
G1 X205.762 Y149.225 E4.75616
G1 X205.115 Y149.225 E.0246
G1 X116.663 Y60.773 E4.75616
G1 X116.017 Y60.773 E.02456
G1 X204.469 Y149.225 E4.75616
G1 X203.822 Y149.225 E.0246
G1 X115.37 Y60.773 E4.75616
G1 X114.723 Y60.773 E.0246
G1 X203.175 Y149.225 E4.75616
G1 X202.529 Y149.225 E.02456
G1 X114.076 Y60.773 E4.75619
G1 X113.43 Y60.773 E.02456
G1 X201.882 Y149.225 E4.75616
G1 X201.235 Y149.225 E.0246
G1 X112.783 Y60.773 E4.75616
G1 X112.136 Y60.773 E.0246
G1 X200.588 Y149.225 E4.75616
G1 X199.942 Y149.225 E.02456
M73 Q5 S93
G1 X111.49 Y60.773 E4.75616
G1 X110.843 Y60.773 E.0246
G1 X199.295 Y149.225 E4.75616
G1 X198.648 Y149.225 E.0246
G1 X110.196 Y60.773 E4.75616
G1 X109.55 Y60.773 E.02456
G1 X198.002 Y149.225 E4.75616
G1 X197.355 Y149.225 E.0246
G1 X108.903 Y60.773 E4.75616
G1 X108.256 Y60.773 E.0246
M73 P5 R91
G1 X196.708 Y149.225 E4.75616
G1 X196.062 Y149.225 E.02456
G1 X107.61 Y60.773 E4.75616
G1 X106.963 Y60.773 E.0246
G1 X195.415 Y149.225 E4.75616
G1 X194.768 Y149.225 E.0246
M73 P6 R91
G1 X106.316 Y60.773 E4.75616
G1 X105.669 Y60.773 E.0246
G1 X194.122 Y149.225 E4.75619
G1 X193.475 Y149.225 E.0246
M73 Q6 S93
G1 X105.023 Y60.773 E4.75616
G1 X104.376 Y60.773 E.0246
G1 X192.828 Y149.225 E4.75616
G1 X192.182 Y149.225 E.02456
G1 X103.729 Y60.773 E4.75619
G1 X103.083 Y60.772 E.02456
G1 X191.535 Y149.225 E4.75619
G1 X190.888 Y149.225 E.0246
G1 X102.436 Y60.772 E4.75619
G1 X101.789 Y60.772 E.0246
G1 X190.242 Y149.225 E4.75621
G1 X189.595 Y149.225 E.0246
G1 X101.143 Y60.772 E4.75619
G1 X100.496 Y60.772 E.0246
G1 X188.948 Y149.225 E4.75619
G1 X188.302 Y149.225 E.02456
M73 Q6 S92
G1 X99.849 Y60.772 E4.75621
G1 X99.203 Y60.772 E.02456
G1 X187.655 Y149.225 E4.75619
G1 X187.008 Y149.225 E.0246
G1 X98.556 Y60.772 E4.75619
G1 X97.909 Y60.772 E.0246
G1 X186.362 Y149.225 E4.75621
G1 X185.715 Y149.225 E.0246
G1 X97.262 Y60.772 E4.75621
G1 X96.616 Y60.772 E.02456
G1 X185.068 Y149.225 E4.75619
G1 X184.422 Y149.225 E.02456
M73 P6 R90
G1 X95.969 Y60.772 E4.75621
G1 X95.322 Y60.772 E.0246
G1 X183.775 Y149.225 E4.75621
G1 X183.128 Y149.225 E.0246
G1 X94.676 Y60.772 E4.75619
G1 X94.029 Y60.772 E.0246
M73 P7 R90
G1 X182.482 Y149.225 E4.75621
G1 X181.835 Y149.225 E.0246
M73 Q7 S92
G1 X93.382 Y60.772 E4.75621
G1 X92.736 Y60.772 E.02456
G1 X181.188 Y149.225 E4.75619
G1 X180.542 Y149.225 E.02456
G1 X92.089 Y60.772 E4.75621
G1 X91.442 Y60.772 E.0246
G1 X179.895 Y149.225 E4.75621
G1 X179.248 Y149.225 E.0246
G1 X90.796 Y60.772 E4.75619
G1 X90.149 Y60.772 E.0246
G1 X178.602 Y149.225 E4.75621
G1 X177.955 Y149.225 E.0246
G1 X89.502 Y60.772 E4.75621
G1 X88.855 Y60.772 E.0246
G1 X177.308 Y149.225 E4.75621
G1 X176.662 Y149.225 E.02456
G1 X88.209 Y60.772 E4.75621
G1 X87.562 Y60.772 E.0246
M73 Q7 S91
G1 X176.015 Y149.225 E4.75621
G1 X175.368 Y149.225 E.0246
G1 X86.915 Y60.772 E4.75621
G1 X86.269 Y60.772 E.02456
G1 X174.722 Y149.225 E4.75621
G1 X174.075 Y149.225 E.0246
G1 X85.622 Y60.772 E4.75621
G1 X84.975 Y60.772 E.0246
G1 X173.428 Y149.225 E4.75621
G1 X172.782 Y149.225 E.02456
G1 X84.329 Y60.772 E4.75621
G1 X83.682 Y60.772 E.0246
M73 P7 R89
G1 X172.135 Y149.225 E4.75621
G1 X171.488 Y149.225 E.0246
G1 X83.035 Y60.772 E4.75621
G1 X82.389 Y60.772 E.02456
M73 P8 R89
G1 X170.842 Y149.225 E4.75621
G1 X170.195 Y149.225 E.0246
G1 X81.742 Y60.772 E4.75621
G1 X81.095 Y60.772 E.0246
M73 Q8 S91
G1 X169.548 Y149.225 E4.75621
G1 X168.902 Y149.225 E.02456
G1 X80.449 Y60.772 E4.75621
G1 X79.802 Y60.772 E.0246
G1 X168.255 Y149.225 E4.75621
